!!!OTL: Koennt ich von Herzen singen
!!!ARE: Europa, Mitteleuropa, Deutschland
!!!SCT: L0087
!!!YEM: Copyright 1995, estate of Helmut Schaffrath.
**kern
*ICvox
*Ivox
!! Mixed meters:  6/4; 4/2
*M6/4
*k[f#c#g#]
*A:
{2a
=1
2a
4a
2gn
4e
=2
2gn
2a}
{2ccn
=3
2ccn
4ee
2ccn
4a
=4
2g#
2a}
{2a
=5
2a
4a
2gn
4e
=6
2gn
2a}
{2ccn
=7
2ccn
4ee
2ccn
4a
=8
2g#
2a}
{2ccn
=9
2ccn
4b
2ccn
4a
=10
4b
4a
2gn
2r}
=11
{2ccn
=12
2ccn
4b
2ccn
4dd
=13
2ee
4ccn
4a
2gn}
=14
{2ccn
=15
2ccn
4ee
2ccn
4a
=16
2g#
2a}
==
!!!AGN: Lied
!! Hamburg 1598 No. 77
!!!ONB: ESAC (Essen Associative Code) Database: ERK5
!!!AMT: irregular
!!!AIN: vox
!!!EED: Helmut Schaffrath
!!!EEV: 1.0
*-
